contracts-metadata/images/nexo.svg

<svg viewBox="0 0 54 64" fill="none" xmlns="http://www.w3.org/2000/svg">
<path class="nexo-logo-letter-o" d="M46.8358 51.5002C45.5961 51.4837 44.3796 51.8361 43.3408 52.5128C42.302 53.1895 41.4879 54.1598 41.002 55.3004C40.5161 56.4409 40.3804 57.7002 40.6121 58.9181C40.8438 60.136 41.4324 61.2575 42.3031 62.14C43.1738 63.0225 44.2873 63.6261 45.502 63.8742C46.7167 64.1222 47.9777 64.0033 49.1247 63.5328C50.2717 63.0623 51.2529 62.2613 51.9434 61.2317C52.634 60.2021 53.0028 58.9904 53.0029 57.7506C53.003 56.1072 52.356 54.5299 51.2017 53.3601C50.0475 52.1903 48.479 51.5221 46.8358 51.5002ZM46.8358 61.3134C46.3468 61.3397 45.8576 61.2661 45.3981 61.0971C44.9385 60.9281 44.5182 60.6673 44.1628 60.3305C43.8073 59.9937 43.5243 59.588 43.3308 59.1381C43.1374 58.6883 43.0376 58.2038 43.0376 57.7142C43.0376 57.2245 43.1374 56.74 43.3308 56.2902C43.5243 55.8404 43.8073 55.4347 44.1628 55.0979C44.5182 54.7611 44.9385 54.5002 45.3981 54.3312C45.8576 54.1622 46.3468 54.0886 46.8358 54.115C47.7569 54.1645 48.6239 54.5653 49.2584 55.2349C49.8928 55.9044 50.2465 56.7917 50.2465 57.7142C50.2465 58.6366 49.8928 59.5239 49.2584 60.1934C48.6239 60.863 47.7569 61.2638 46.8358 61.3134Z" fill="#2853C3"></path>
<path class="nexo-logo-letter-x" d="M38.3292 51.5866C38.2981 51.5572 38.257 51.5408 38.2141 51.5408C38.1713 51.5408 38.1301 51.5572 38.099 51.5866L33.8606 55.7727L29.6746 51.5866C29.6435 51.5572 29.6023 51.5408 29.5595 51.5408C29.5166 51.5408 29.4754 51.5572 29.4443 51.5866L27.7385 53.3553C27.7091 53.3864 27.6927 53.4275 27.6927 53.4704C27.6927 53.5132 27.7091 53.5544 27.7385 53.5855L31.9246 57.7715L27.6757 62.0204C27.6463 62.0515 27.6299 62.0927 27.6299 62.1355C27.6299 62.1783 27.6463 62.2195 27.6757 62.2506L29.3502 63.9145C29.3688 63.9348 29.3914 63.9511 29.4166 63.9621C29.4419 63.9732 29.4691 63.979 29.4967 63.979C29.5242 63.979 29.5515 63.9732 29.5767 63.9621C29.6019 63.9511 29.6246 63.9348 29.6432 63.9145L33.8292 59.7285L38.0153 63.9145C38.0464 63.944 38.0876 63.9604 38.1304 63.9604C38.1732 63.9604 38.2144 63.944 38.2455 63.9145L39.9513 62.2192C39.9808 62.1881 39.9972 62.1469 39.9972 62.1041C39.9972 62.0613 39.9808 62.0201 39.9513 61.989L35.7653 57.8029L40.0141 53.6169C40.0436 53.5858 40.06 53.5446 40.06 53.5018C40.06 53.4589 40.0436 53.4177 40.0141 53.3866L38.3292 51.5866Z" fill="#2853C3"></path>
<path class="nexo-logo-letter-e" d="M26.683 57.0801C26.4236 53.9757 23.838 51.5265 20.6721 51.5001C19.7697 51.5001 18.8865 51.6902 18.069 52.0718C15.8267 53.1197 14.5732 55.3438 14.5732 57.7748C14.6964 61.0727 17.5149 63.7813 20.8172 63.7813H24.2822C24.4668 63.7813 24.6207 63.6318 24.6207 63.4428V61.4596C24.6207 61.275 24.4712 61.1211 24.2822 61.1211H20.6677C19.1551 61.1211 17.8711 59.9954 17.4094 58.6367H26.2741C26.5159 58.6367 26.7094 58.4564 26.7094 58.2365C26.7049 57.9593 26.683 57.0801 26.683 57.0801ZM23.8337 56.4425H17.4226C17.9459 54.9697 19.4017 54.0246 20.9535 54.1736C22.299 54.3011 23.3851 55.2245 23.8337 56.4425Z" fill="#2853C3"></path>
<path class="nexo-logo-letter-n" d="M6.81165 51.5057C5.66468 51.533 4.55105 51.8969 3.60932 52.5522V51.8615C3.60932 51.806 3.58727 51.7528 3.54802 51.7135C3.50877 51.6743 3.45553 51.6522 3.40002 51.6522H1.16048C1.10497 51.6522 1.05173 51.6743 1.01248 51.7135C0.973228 51.7528 0.951177 51.806 0.951177 51.8615V57.4394C0.945962 57.5336 0.945962 57.6279 0.951177 57.722V63.415C0.951136 63.5048 0.986081 63.5911 1.0486 63.6556C1.11112 63.7201 1.19629 63.7577 1.28606 63.7604H3.27444C3.31931 63.7604 3.36373 63.7514 3.40506 63.7339C3.44638 63.7164 3.48378 63.6908 3.51502 63.6586C3.54625 63.6264 3.5707 63.5882 3.5869 63.5464C3.6031 63.5045 3.61072 63.4599 3.60932 63.415V57.586C3.60996 57.1073 3.71068 56.6341 3.90503 56.1967C4.09937 55.7593 4.38304 55.3674 4.73782 55.0462C5.0926 54.7249 5.51065 54.4814 5.96511 54.3312C6.41958 54.1811 6.90043 54.1276 7.37677 54.1743C8.24352 54.2654 9.0453 54.676 9.62574 55.326C10.2062 55.9761 10.5237 56.8191 10.5163 57.6906V63.436C10.5149 63.4808 10.5225 63.5255 10.5387 63.5673C10.5549 63.6092 10.5794 63.6473 10.6106 63.6795C10.6419 63.7118 10.6793 63.7374 10.7206 63.7548C10.7619 63.7723 10.8063 63.7813 10.8512 63.7813H12.8291C12.9207 63.7813 13.0085 63.7449 13.0733 63.6802C13.1381 63.6154 13.1745 63.5275 13.1745 63.436V57.586C13.1724 56.764 13.0043 55.9509 12.6802 55.1956C12.3561 54.4402 11.8827 53.7581 11.2884 53.1903C10.6942 52.6224 9.9913 52.1805 9.22201 51.891C8.45271 51.6015 7.63286 51.4705 6.81165 51.5057V51.5057Z" fill="#2853C3"></path>
<path class="nexo-logo-shape-6" d="M1.00002 7.50415V36.9314C0.998962 37.1128 1.04487 37.2913 1.13327 37.4497C1.22167 37.6081 1.34955 37.7409 1.50448 37.8352L14.0005 45.0449V14.9871L1.00002 7.50415Z" fill="#60BEFF"></path>
<path class="nexo-logo-shape-5" d="M39.9912 0L52.4978 7.20967C52.6482 7.30117 52.7733 7.429 52.8614 7.58142C52.9496 7.73384 52.998 7.90596 53.0023 8.08198V37.5092L39.9912 30.0158V0Z" fill="#1A4199"></path>
<path class="nexo-logo-shape-4" d="M14 45.0249L26.9904 37.5207L14 30.0166V45.0249Z" fill="#3CA9E5"></path>
<path class="nexo-logo-shape-3" d="M14.4945 0.295389L39.9911 15.009V30.0169L1 7.50505L13.4961 0.295389C13.6459 0.202271 13.8189 0.152924 13.9953 0.152924C14.1717 0.152924 14.3446 0.202271 14.4945 0.295389V0.295389Z" fill="#3CA9E5"></path>
<path class="nexo-logo-shape-2" d="M39.9931 0L26.9922 7.50415L39.9931 15.0083V0Z" fill="#2853C3"></path>
<path class="nexo-logo-shape-1" d="M52.9921 37.5201L40.4961 44.7298C40.3363 44.8221 40.1551 44.8706 39.9706 44.8706C39.7861 44.8706 39.6049 44.8221 39.4451 44.7298L13.959 30.0162V14.9873L52.9921 37.5201Z" fill="#2853C3"></path>
</svg>

<svg viewBox="0 0 54 64" fill="none" xmlns="http://www.w3.org/2000/svg"><path class="nexo-logo-letter-o" d="M46.836 51.5a6.25 6.25 0 1 0-.167 12.5 6.25 6.25 0 0 0 .167-12.5zm0 9.813a3.604 3.604 0 1 1-.387-7.198 3.604 3.604 0 0 1 .387 7.198z" fill="#2853C3"/><path class="nexo-logo-letter-x" d="M38.33 51.587a.167.167 0 0 0-.231 0l-4.238 4.186-4.186-4.186a.168.168 0 0 0-.23 0l-1.707 1.768a.167.167 0 0 0 0 .23l4.187 4.187-4.25 4.248a.168.168 0 0 0 0 .23l1.675 1.664a.197.197 0 0 0 .227.048.198.198 0 0 0 .066-.048l4.186-4.186 4.186 4.186a.167.167 0 0 0 .23 0l1.706-1.695a.167.167 0 0 0 0-.23l-4.186-4.186 4.25-4.186a.167.167 0 0 0 0-.23l-1.686-1.8z" fill="#2853C3"/><path class="nexo-logo-letter-e" d="M26.683 57.08c-.26-3.104-2.845-5.553-6.01-5.58a6.13 6.13 0 0 0-2.604.572c-2.242 1.048-3.496 3.272-3.496 5.703.123 3.298 2.942 6.006 6.244 6.006h3.465a.34.34 0 0 0 .339-.338V61.46a.339.339 0 0 0-.339-.339h-3.614c-1.513 0-2.797-1.126-3.259-2.484h8.865c.242 0 .435-.18.435-.4a236.11 236.11 0 0 0-.026-1.157zm-2.85-.637h-6.41c.523-1.473 1.979-2.418 3.53-2.27 1.346.128 2.432 1.051 2.88 2.27z" fill="#2853C3"/><path class="nexo-logo-letter-n" d="M6.812 51.506a5.85 5.85 0 0 0-3.203 1.046v-.69a.21.21 0 0 0-.209-.21H1.16a.21.21 0 0 0-.209.21v5.577a2.554 2.554 0 0 0 0 .283v5.693a.345.345 0 0 0 .335.345h1.988a.335.335 0 0 0 .335-.345v-5.829a3.433 3.433 0 0 1 3.768-3.412 3.507 3.507 0 0 1 3.14 3.517v5.745a.335.335 0 0 0 .334.345h1.978a.346.346 0 0 0 .345-.345v-5.85a6.101 6.101 0 0 0-6.362-6.08z" fill="#2853C3"/><path class="nexo-logo-shape-6" d="M1 7.504v29.427a1.05 1.05 0 0 0 .504.904l12.497 7.21V14.987L1 7.504z" fill="#60BEFF"/><path class="nexo-logo-shape-5" d="m39.991 0 12.507 7.21a1.05 1.05 0 0 1 .504.872v29.427l-13.01-7.493V0z" fill="#1A4199"/><path class="nexo-logo-shape-4" d="m14 45.025 12.99-7.504L14 30.017v15.008z" fill="#3CA9E5"/><path class="nexo-logo-shape-3" d="M14.495.295 39.99 15.01v15.008L1 7.505 13.496.295a.946.946 0 0 1 .998 0z" fill="#3CA9E5"/><path class="nexo-logo-shape-2" d="m39.993 0-13 7.504 13 7.504V0z" fill="#2853C3"/><path class="nexo-logo-shape-1" d="m52.992 37.52-12.496 7.21a1.05 1.05 0 0 1-1.05 0L13.958 30.016V14.987L52.992 37.52z" fill="#2853C3"/></svg>
